X:1
T:A Blindman's Song
T:A Blindman's Song
T:Joe Knapicius 
C:Joe Knapicius
%%score 1 { 2 | 3 }
L:1/8
Q:1/4=76
M:4/4
K:D
V:1 treble-8 nm="Voice" snm="Voice"
V:2 bass nm="Piano" snm="Pno."
V:3 bass 
V:1
 z8 | z8 | z6 AG | FEFE F2 A2 | F4 z2 BA | GFGF G2 A2 | G4 z2 AG | FEFE F2 A2 | F4 z2 A2 | ^A8 | %10
w: ||Love is|al- ways pa- tient; al- ways|kind; Does- n't|en- vy, does- n't brag; not|proud; Nev- er|rude and nev- er self serv-|ing; That's|love.|
 z8 | z8 | z6 AG | FEFE F2 A2 | F4 z2 BA | GFGF G2 A2 | G4 z2 AG | FE F2 z2 AG | FE F2 z2 cB | %19
w: ||Does- n't|an- ger; does- n't track your|wrongs; Nev- er|sides with wrong; but sides with|truth; Al- ways|bears all things; Al- ways|full of trust; Al- ways|
 AG A2 z2 cB | AG A2 z2 c2 | c8 | z8 | z6 AG | FE F2 z2 AG | FE F2 z2 cB | AG A2 z2 cB | %27
w: full of hope; Love will|nev- er fail; That's|love.||Al- ways|bears all things; Al- ways|full of trust; Al- ways|full of hope; Love will|
 AG A2 z2 c2 | c8 | z8 | z2 D6 | z8 | z8 |] %33
w: nev- er fail; That's|love.||Love.|||
V:2
 z2 F,C F,2 z2"^Instrument change" |"^Instrument change" z2 F,C F,2 z2"^Instrument change" | %2
"^Instrument change" z2 F,C F,2 z2"^Instrument change" | %3
"^Instrument change" z2 F,C F,2 z2"^Instrument change" | %4
"^Instrument change" z2 F,C F,2 B,2-"^Instrument change" | %5
"^Instrument change" B,2 G,D G,2 A,2"^Instrument change" | %6
"^Instrument change" G,2 G,D G,2 A,2-"^Instrument change" | %7
"^Instrument change" A,2 F,C F,2 z2"^Instrument change" | %8
"^Instrument change" z2 F,C F,2 A,2"^Instrument change" | %9
"^Instrument change" ^A,2 A,F z2 F^G"^Instrument change" | %10
"^Instrument change" z2 B,F z2 (3CGA"^Instrument change" | %11
"^Instrument change" z2 F,C F,2 z2"^Instrument change" | %12
"^Instrument change" z2 F,C F,2 z2"^Instrument change" | %13
"^Instrument change" z2 F,C F,2 z2"^Instrument change" | %14
"^Instrument change" z2 F,C F,2 B,2-"^Instrument change" | %15
"^Instrument change" B,2 G,D G,2 A,2"^Instrument change" | %16
"^Instrument change" G,2 G,D G,2 A,2-"^Instrument change" | %17
"^Instrument change" A,2 F,C F,2 z2"^Instrument change" | %18
"^Instrument change" z2 F,C F,2 z2"^Instrument change" | %19
"^Instrument change" z2 F,C F,2 z2"^Instrument change" | %20
"^Instrument change" z2 F,C F,2 C2"^Instrument change" | %21
"^Instrument change" C2 ^A,F z2 F^G"^Instrument change" | %22
"^Instrument change" z2 B,F z2 (3CGA"^Instrument change" | %23
"^Instrument change" z2 F,C F,2 z2"^Instrument change" | %24
"^Instrument change" z2 F,C F,2 z2"^Instrument change" | %25
"^Instrument change" z2 F,C F,2 z2"^Instrument change" | %26
"^Instrument change" z2 F,C F,2 z2"^Instrument change" | %27
"^Instrument change" z2 F,C F,2 C2"^Instrument change" | %28
"^Instrument change" C2 ^A,F z2 F^G"^Instrument change" | %29
"^Instrument change" z2 B,F z2 (3CGA"^Instrument change" | %30
"^Instrument change" z2 F,C F,2 z2"^Instrument change" | %31
"^Instrument change" z4 F,2 C2"^Instrument change" |"^Instrument change" [F,C]8 |] %33
V:3
"D"!ped! D,,E,!ped! z3 E, A,,2 |"D" D,,E, z3 E, A,,2 |"D" D,,E, z3 E, A,,2 |"D" D,,E, z3 E, A,,2 | %4
"D" D,,E, z3 E, A,,2 |"Em" E,,F, z3 F, B,,2 |"Em" E,,F, z3 F, B,,2 |"D" D,,E, z3 E, A,,2 | %8
"D" D,,E, z3 E, A,,2 |"F#" F,,^G, z2 ^A,,F, z2 |"G" G,,A, z2"A" A,,_B, z2 |"D" D,,E, z3 E, A,,2 | %12
"D" D,,E, z3 E, A,,2 |"D" D,,E, z3 E, A,,2 |"D" D,,E, z3 E, A,,2 |"Em" E,,F, z3 F, B,,2 | %16
"Em" E,,F, z3 F, B,,2 |"D" D,,E, z3 E, A,,2 |"D" D,,E, z3 E, A,,2 |"D" D,,E, z3 E, A,,2 | %20
"D" D,,E, z3 E, A,,2 |"F#" F,,^G, z2 ^A,,F, z2 |"G" G,,A, z2"A" A,,_B, z2 |"D" D,,E, z3 E, A,,2 | %24
"D" D,,E, z3 E, A,,2 |"D" D,,E, z3 E, A,,2 |"D" D,,E, z3 E, A,,2 |"D" D,,E, z3 E, A,,2 | %28
"F#" F,,^G, z2 ^A,,F, z2 |"G" G,,A, z2"A" A,,_B, z2 |"D" D,,E, z2 z E, A,,2 |"D" D,,2 E,6 | %32
 !arpeggio![D,,E,]8 |] %33

